X: 19261
T: Itzbin
R: reel
M: 4/4
K: Amajor
|:"A"cBcB ABAF|EFEC-C4|"D"DEFA-A4|"E"EFGB-B2 AB|
"A"cBcB ABAF|EFED CDEC|"D"DEFD "E"EFGB|1 "A"A2A/A/AA2 AB:|2 "A"A2A/A/A A4||
"F#m"EFAFB2 EF|"D"AFB2 FAz2|"E"GAGE FGAB|"F#m"AF2AF4|
"F#m"EFAFB2 EF|"D"AFB2 FAz2|"E"EFGE FGAF|GABG ABcA|
BcdB cdec|de f/g/f e2ab|"A"abaf geaf|
efed cdeB|"C#m" cdec "E"defg|"A"aecB A4||

